src/assets/icons/dark.svg

<svg width="24" height="24" viewBox="0 0 24 24" xmlns="http://www.w3.org/2000/svg">
<path d="M18.5923 14.1974C18.0574 15.6735 17.1536 16.9925 15.9542 18.0476C14.7548 19.1027 13.2935 19.8642 11.6885 20.2705C10.0835 20.6768 8.38005 20.7164 6.71595 20.3862C5.05185 20.056 3.47391 19.3653 2.10989 18.3698C4.39391 18.519 6.6319 17.9803 8.49829 16.8319C10.3647 15.6835 11.7621 13.9854 12.4873 11.9846C13.2126 9.98374 13.2277 7.7846 12.5306 5.70704C11.8335 3.62947 10.4605 1.78184 8.61134 0.432918C10.2964 0.542676 11.9505 1.02339 13.4396 1.83615C14.9288 2.6489 16.2113 3.77085 17.1832 5.11116C18.1551 6.45147 18.7891 7.97248 19.0339 9.55103C19.2787 11.1296 19.1274 12.7213 18.5923 14.1974Z"/>
</svg>

<svg xmlns="http://www.w3.org/2000/svg" width="24" height="24"><path d="M18.592 14.197a9.384 9.384 0 0 1-2.638 3.85 10.253 10.253 0 0 1-4.266 2.223 11.317 11.317 0 0 1-4.972.116A11.684 11.684 0 0 1 2.11 18.37c2.284.149 4.522-.39 6.388-1.538 1.867-1.149 3.264-2.847 3.99-4.847.725-2.001.74-4.2.043-6.278-.697-2.078-2.07-3.925-3.92-5.274 1.685.11 3.34.59 4.829 1.403a11.317 11.317 0 0 1 3.743 3.275 10.253 10.253 0 0 1 1.85 4.44 9.384 9.384 0 0 1-.44 4.646Z"/></svg>
